X: 20403
M: C
L: 1/8
K: D
eAfA gAfA | edcB AGFE |\
eAfA gedc | d2f2 d2 :|
|: cd |\
eAAA fAAA | gAAA fAAA |\
eAfA gAfA | edcB AGFE |\
gfge cABc | d2f2 d2 :|


